!!!COM: Palestrina, Giovanni Perluigi da
!!!OPR: Missa In semidupl. maj. (I)
!!!OMD: Credo
!!!OTL: Et iterum
**kern	**kern	**kern	**kern
*Itenor	*Itenor	*Icalto	*Icant
!Tenor 2	!Tenor 1	!Altus	!Cantus
*clefGv2	*clefGv2	*clefG2	*clefG2
*k[b-]	*k[b-]	*k[b-]	*k[b-]
*F:ion	*F:ion	*F:ion	*F:ion
*M4/2	*M4/2	*M4/2	*M4/2
=97	=97	=97	=97
1r	0r	1c	0r
1F	.	2.f	.
.	.	4e	.
=98	=98	=98	=98
2B-	0r	2d	1f
2A	.	2c	.
2G	.	4d	2b-
.	.	4e	.
2F	.	4f	2a
.	.	4d	.
=99	=99	=99	=99
2c	0r	2e	2g
2d	.	1f	2f
1c	.	.	2g
.	.	2e	2g
=100	=100	=100	=100
2r	1F	1f	1f
2c	.	.	.
2d	2B-	2r	2r
2c	2A	2c	2f
=101	=101	=101	=101
2B-	2G	2d	2g
2c	2F	1f	2a
2.B-	2G	.	[1b-
.	2G	2e	.
4c	.	.	.
=102	=102	=102	=102
2d	0F	1f	2b-]
4c	.	.	4a
4B-	.	.	4g
2c	.	2r	1a
2d	.	2F	.
=103	=103	=103	=103
1c	0r	2.A	2r
.	.	.	2f
.	.	4B-	.
1r	.	2c	2a
.	.	2d	2b-
=104	=104	=104	=104
0r	2r	2e	1.cc
.	2F	2f	.
.	2A	2c	.
.	2B-	2d	2f
=105	=105	=105	=105
0r	0c	2e	1a
.	.	1f	.
.	.	.	[1g
.	.	4e	.
.	.	4d	.
=106	=106	=106	=106
1r	2C	2e	1g]
.	2E	2c	.
2r	[1D	2d	2f
2F	.	2d	[2a
=107	=107	=107	=107
2A	1D]	2f	4a]
.	.	.	4g
2B-	.	2F	2f
[1c	[1C	1A	2e
.	.	.	[2f
=108	=108	=108	=108
1c]	1C]	1G	2f]
.	.	.	2e
2r	2c	1F	2a
2F	[2d	.	[2a
=109	=109	=109	=109
1A	2d]	2r	2a]
.	1c	2c	2f
1G	.	1d	1g
.	2B-	.	.
=110	=110	=110	=110
1F	1c	1f	2a
.	.	.	2cc
1F	2r	1f	2dd
.	2c	.	4cc
.	.	.	4b-
=111	=111	=111	=111
1F	2d	2r	1a
.	4c	2c	.
.	4B-	.	.
1F	1A	2c	1f
.	.	[2d	.
=112	=112	=112	=112
1E	1G	2d]	2g
.	.	1c	2g
1D	2A	.	1f
.	4G	2B	.
.	4F	.	.
=113	=113	=113	=113
2C	2G	1c	2.e
1c	2E	.	.
.	.	.	8f
.	.	.	8g
.	2.F	2r	1a
2c	.	[2f	.
.	4E	.	.
=114	=114	=114	=114
1B	1D	2f]	0r
.	.	2f	.
2c	1C	1e	.
2c	.	.	.
=115	=115	=115	=115
2A	0r	2f	1r
1B-	.	2f	.
.	.	2d	2r
2c	.	2e	[2cc
=116	=116	=116	=116
2F	0r	2f	2cc]
2A	.	2c	2cc
2G	.	1d	1b
2G	.	.	.
=117	=117	=117	=117
4c	0r	1e	2cc
4B-	.	.	.
4A	.	.	2cc
4G	.	.	.
2F	.	2f	2a
2G	.	2d	2b-
=118	=118	=118	=118
2.C	2r	0e	1cc
.	1c	.	.
4D	.	.	.
4E	.	.	1g
4D	.	.	.
4E	2c	.	.
4F	.	.	.
=119	=119	=119	=119
1G	1B	1d	2r
.	.	.	1g
1C	2c	1e	.
.	2c	.	2e
=120	=120	=120	=120
0r	2A	2c	2f
.	2B-	2d	2g
.	1c	2.e	2c
.	.	.	[2cc
.	.	8d	.
.	.	8c	.
=121	=121	=121	=121
1r	2G	1d	2cc]
.	2G	.	2b
2r	1A	1c	2cc
[2F	.	.	[2a
=122	=122	=122	=122
2F]	1c	2r	2a]
2F	.	2c	2a
1E	2C	2.c	1g
.	2c	.	.
.	.	4B-	.
=123	=123	=123	=123
0F	2.c	4A	2a
.	.	4G	.
.	.	1A	2cc
.	4B-	.	.
.	4A	.	2.cc
.	4G	.	.
.	[2A	2F	.
.	.	.	4b-
=124	=124	=124	=124
1F	2A]	1.f	4a
.	.	.	4g
.	2F	.	1a
2D	1B-	.	.
2E	.	4e	2g
.	.	4d	.
=125	=125	=125	=125
0F	2.A	1c	2.f
.	4B-	.	4g
.	1c	1f	1a
=126	=126	=126	=126
[0C	[0c	[0e	[0g
=127	=127	=127	=127
0C]	0c]	0e]	0g]
*-	*-	*-	*-
!!!CDT: 1525/^1526/-1594/2/2
!!!OCY: Italia
!!!AGN: Mass (Paraphrase)
!!!AST: renaissance, vocal
!!!ASW: Gregorian Mass
!!!PWK: Masses, Book Mantuan II
!!!RNB: Cadence finals: C
!!!YOR: Le Opere Complete, v. 19, p. 129
!!!YOO: Rome, Italy: Fratelli Scalera
!!!END: 1992//
!!!EED: John Miller
!!!YEC: Copyright 2000, John Miller
!!!YEN: United States of America
!!!YEM: Rights to all derivative electronic formats reserved.
!!!YEM: Refer to licensing agreement for further details.
!!!YEM: This file must be accompanied by the licensing agreement.
!!!YEM: A copy of the licensing agreement may be found at http://www.music-cog.ohio-state.edu/HumdrumDatabases/Palestrina/license.txt
!!!EMD: converted to Humdrum by Bret Aarden
